X: 7
T: The Bluebell Polka
R: barndance
M: 4/4
L: 1/8
K: Gmaj
|: (3Bdg |b2 b2 g>fg>e | d2 d2 B2 z G | F2 A2 c2 e2 | ed^cd B2 (3Bdg |
b2 b2 g>fg>e | d2 d2 B2 z G | FGAB cdef | g2 g2 g2 :|
K: DMaj
|: z2 |A2 A2 FAdf | a2 a2 f4 | a2 ^g2 =g3 e | b2 (3aba ^g2 a2 |
A2 A2 FAdf | a2 a2 f4 | a2 ^g2 =g3 e | d2 d2 d2 :|
K: GMaj
|: (3Bdg |b2 b2 g>fg>e | d2 d2 B2 z G | F2 A2 c2 e2 | ed^cd B2 (3Bdg |
b2 b2 g>fg>e | d2 d2 B2 z G | FGAB cdef | g2 g2 g2 :|
K: CMaj
|: z2 |e2 e2 ef g2 | e2 e2 ef g2 | f2 f2 fd B2 | fefg fd B2 |
e2 e2 ef g2 | e2 e2 ef g2 | f2 f2 fdBd | c2 c2 c2 :|


Tune 3352	Setting 29968

